public/assets/imgs/svg/facebook.svg

<svg xmlns="http://www.w3.org/2000/svg" id="facebook" viewBox="0 0 12 28">
  <path fill="#000" class="path1" d="M7.984 8.687h4.016l-0.469 4.438h-3.547v12.875h-5.328v-12.875h-2.656v-4.438h2.656v-2.672q0-2.844 1.344-4.305t4.422-1.461h3.547v4.438h-2.219q-0.609 0-0.977 0.102t-0.531 0.367-0.211 0.539-0.047 0.773v2.219z"></path>
</svg>

<svg xmlns="http://www.w3.org/2000/svg" id="facebook" viewBox="0 0 12 28"><path class="path1" d="M7.984 8.687H12l-.469 4.438H7.984V26H2.656V13.125H0V8.687h2.656V6.015Q2.656 3.171 4 1.71T8.422.249h3.547v4.438H9.75q-.609 0-.977.102t-.531.367-.211.539-.047.773v2.219z"/></svg>
